X:187
T: Gaoshan da shi shi luo tan
N: C1679
O: China, Jiangxi, Lianhua
S: IV, 235]
R: Shange. Nann qing]
M: 3/4
L: 1/8
K: Bb
c2c2bc | b2g2f2 | g2b3f | g6
c2c2bg | f2g2b2 | c2b3g | f6
c2f2g2 | b2c2g2 | c2b2c2 | f2d4
d2cd | b2c2d2 | c2b3g | f6
b2gz3 | b2fg | b2b2 | b2f2b2 | g6
d2dc | g2c4 | c2b3g | f4- | f2z2

